Newaita-dark/actions/16/view-calendar-wedding-anniversary.svg

<svg height="16" viewBox="0 0 16 16" width="16" xmlns="http://www.w3.org/2000/svg"><g fill="#e0e0e0"><path d="m2.644531 1.449219c-.730469 0-1.320312.589843-1.320312 1.320312v10.585938c0 .734375.589843 1.324219 1.320312 1.324219h10.585938c.734375 0 1.324219-.589844 1.324219-1.324219v-10.585938c0-.730469-.589844-1.320312-1.324219-1.320312zm.664063 1.320312h9.261718c.363282 0 .660157.296875.660157.664063v9.261718c0 .363282-.296875.660157-.660157.660157h-9.261718c-.367188 0-.664063-.296875-.664063-.660157v-9.261718c0-.367188.296875-.664063.664063-.664063zm0 0"/><path d="m11.246094 3.433594c.363281 0 .660156.296875.660156.660156 0 .367188-.296875.660156-.660156.660156-.367188 0-.660156-.292968-.660156-.660156 0-.363281.292968-.660156.660156-.660156zm0 0"/><path d="m1.984375 5.417969h11.90625v.660156h-11.90625zm0 0"/><path d="m6.78125 7.402344c-1.285156 0-2.316406 1.03125-2.316406 2.316406 0 1.28125 1.03125 2.3125 2.316406 2.3125 1.28125 0 2.316406-1.03125 2.316406-2.3125 0-1.285156-1.035156-2.316406-2.316406-2.316406zm0 .660156c.914062 0 1.652344.738281 1.652344 1.65625 0 .914062-.738282 1.652344-1.652344 1.652344-.917969 0-1.65625-.738282-1.65625-1.652344 0-.917969.738281-1.65625 1.65625-1.65625zm0 0"/><path d="m4.628906 3.433594c.367188 0 .664063.296875.664063.660156 0 .367188-.296875.660156-.664063.660156-.363281 0-.660156-.292968-.660156-.660156 0-.363281.296875-.660156.660156-.660156zm0 0"/><path d="m9.097656 7.402344c-1.285156 0-2.316406 1.03125-2.316406 2.316406 0 1.28125 1.03125 2.3125 2.316406 2.3125 1.28125 0 2.3125-1.03125 2.3125-2.3125 0-1.285156-1.03125-2.316406-2.3125-2.316406zm0 .660156c.914063 0 1.652344.738281 1.652344 1.65625 0 .914062-.738281 1.652344-1.652344 1.652344-.917968 0-1.65625-.738282-1.65625-1.652344 0-.917969.738282-1.65625 1.65625-1.65625zm0 0"/></g></svg>

<svg xmlns="http://www.w3.org/2000/svg" xmlns:xlink="http://www.w3.org/1999/xlink" width="16px" height="16px" viewBox="0 0 16 16" version="1.1">
<g id="surface1">
     <defs>
  <style id="current-color-scheme" type="text/css">
   .ColorScheme-Text { color:#eeeeee; } .ColorScheme-Highlight { color:#424242; }
  </style>
 </defs>
<path style="fill:currentColor" class="ColorScheme-Text" d="M 2.644531 1.449219 C 1.914062 1.449219 1.324219 2.039062 1.324219 2.769531 L 1.324219 13.355469 C 1.324219 14.089844 1.914062 14.679688 2.644531 14.679688 L 13.230469 14.679688 C 13.964844 14.679688 14.554688 14.089844 14.554688 13.355469 L 14.554688 2.769531 C 14.554688 2.039062 13.964844 1.449219 13.230469 1.449219 Z M 3.308594 2.769531 L 12.570312 2.769531 C 12.933594 2.769531 13.230469 3.066406 13.230469 3.433594 L 13.230469 12.695312 C 13.230469 13.058594 12.933594 13.355469 12.570312 13.355469 L 3.308594 13.355469 C 2.941406 13.355469 2.644531 13.058594 2.644531 12.695312 L 2.644531 3.433594 C 2.644531 3.066406 2.941406 2.769531 3.308594 2.769531 Z M 3.308594 2.769531 "/>
     <defs>
  <style id="current-color-scheme" type="text/css">
   .ColorScheme-Text { color:#eeeeee; } .ColorScheme-Highlight { color:#424242; }
  </style>
 </defs>
<path style="fill:currentColor" class="ColorScheme-Text" d="M 11.246094 3.433594 C 11.609375 3.433594 11.90625 3.730469 11.90625 4.09375 C 11.90625 4.460938 11.609375 4.753906 11.246094 4.753906 C 10.878906 4.753906 10.585938 4.460938 10.585938 4.09375 C 10.585938 3.730469 10.878906 3.433594 11.246094 3.433594 Z M 11.246094 3.433594 "/>
     <defs>
  <style id="current-color-scheme" type="text/css">
   .ColorScheme-Text { color:#eeeeee; } .ColorScheme-Highlight { color:#424242; }
  </style>
 </defs>
<path style="fill:currentColor" class="ColorScheme-Text" d="M 1.984375 5.417969 L 13.890625 5.417969 L 13.890625 6.078125 L 1.984375 6.078125 Z M 1.984375 5.417969 "/>
     <defs>
  <style id="current-color-scheme" type="text/css">
   .ColorScheme-Text { color:#eeeeee; } .ColorScheme-Highlight { color:#424242; }
  </style>
 </defs>
<path style="fill:currentColor" class="ColorScheme-Text" d="M 6.78125 7.402344 C 5.496094 7.402344 4.464844 8.433594 4.464844 9.71875 C 4.464844 11 5.496094 12.03125 6.78125 12.03125 C 8.0625 12.03125 9.097656 11 9.097656 9.71875 C 9.097656 8.433594 8.0625 7.402344 6.78125 7.402344 Z M 6.78125 8.0625 C 7.695312 8.0625 8.433594 8.800781 8.433594 9.71875 C 8.433594 10.632812 7.695312 11.371094 6.78125 11.371094 C 5.863281 11.371094 5.125 10.632812 5.125 9.71875 C 5.125 8.800781 5.863281 8.0625 6.78125 8.0625 Z M 6.78125 8.0625 "/>
     <defs>
  <style id="current-color-scheme" type="text/css">
   .ColorScheme-Text { color:#eeeeee; } .ColorScheme-Highlight { color:#424242; }
  </style>
 </defs>
<path style="fill:currentColor" class="ColorScheme-Text" d="M 4.628906 3.433594 C 4.996094 3.433594 5.292969 3.730469 5.292969 4.09375 C 5.292969 4.460938 4.996094 4.753906 4.628906 4.753906 C 4.265625 4.753906 3.96875 4.460938 3.96875 4.09375 C 3.96875 3.730469 4.265625 3.433594 4.628906 3.433594 Z M 4.628906 3.433594 "/>
     <defs>
  <style id="current-color-scheme" type="text/css">
   .ColorScheme-Text { color:#eeeeee; } .ColorScheme-Highlight { color:#424242; }
  </style>
 </defs>
<path style="fill:currentColor" class="ColorScheme-Text" d="M 9.097656 7.402344 C 7.8125 7.402344 6.78125 8.433594 6.78125 9.71875 C 6.78125 11 7.8125 12.03125 9.097656 12.03125 C 10.378906 12.03125 11.410156 11 11.410156 9.71875 C 11.410156 8.433594 10.378906 7.402344 9.097656 7.402344 Z M 9.097656 8.0625 C 10.011719 8.0625 10.75 8.800781 10.75 9.71875 C 10.75 10.632812 10.011719 11.371094 9.097656 11.371094 C 8.179688 11.371094 7.441406 10.632812 7.441406 9.71875 C 7.441406 8.800781 8.179688 8.0625 9.097656 8.0625 Z M 9.097656 8.0625 "/>
</g>
</svg>
